X:153
T:Country Courtship
C:John Young, Dancing Master Volume 3, c. 1727
L:1/8
M:6/8
S:Colin Hume's website,  colinhume.com  - chords can also be printed below the stave.
Q:3/8=100
K:F
P:A
|: c/B/ | "F"A>GF "/"FGF | "Dm"ABc "/"cdc | "Gm"BAG "/"GAG | "C7"Bcd "/"ded |\
"F"AGF "/"FGF | "Dm"ABc "/"cdc | "C7"cBA "/"GcB | "F"A2G "/"F2 :|
P:B
|: e | "Dm"f>gf "/"a2f | "A7"e3- "/"e2a | "Dm"d>ed "/"a2d | "A"^c3- "/"c2A |\
"G"=B^cd "A"cde | "Dm"def "Gm"efg | "Dm"fed "A7"Ad^c | "Dm"d2D "/"D2 :|

